!!!!SEGMENT: pl-kk--kk-i-10--021-001_anonim--missa-paschalis-kyrie.krn
!!!cenid: 16xx:1217
!!!COM: Anonim
!!!COM-rismID:
!!!CDT:
!!!CNT:
!!!OPR: Missa Paschalis
!!!OTL: Kyrie
!!!OMV: 001
!!!PDT:
!!!AGN: Sacred; Mass
!!!SMS-siglum: PL-Kk
!!!SMS-shelfmark: Kk.I.10
!!!SMS-shelfwork: 021-001 M
!!!SMS-variant:
!!!SMS-altvar:
!!!NIFC-rismSourceID: 1001154021
!!!NIFC-islandoraID: pl-kk:2434
!!!URL-pdf-islandora: https://repozytorium.nifc.pl/islandora/object/pl-kk%3A2434/datastream/PDF/view
!!!URL-scan: https://polish.musicsources.pl/pl/lokalizacje/galeria/rekopisy/5737 @EN{Scan on Polish Music Herritage in Open Access Website} @PL{Skany w portalu Dziedzictwo Muzyki Polskiej w otwartym dostępie}
!!!ONB-nifc: UWAGA: części Mszy: 1. Kyrie, 2. Et in terra, 3. Patrem, 4. Sanctus, 5. Agnus Dei. A (skan 0035-0038), T (0083-0087), B (0133-0136). W księdze II zaklejone częściowo papierem fragmenty zapisanej partii T. Następny utwór: Missa alia Paschalis
!!!AIN: 1 alto 1 bass 1 tenor
!!!key:
**kern	**text	**kern	**text	**kern	**text
*part3	*part3	*part2	*part2	*part1	*part1
*staff3	*staff3	*staff2	*staff2	*staff1	*staff1
*Ibass	*	*Itenor	*	*Ialto	*
*I"[Bassus]	*	*I"[Tenore]	*	*I"alt(us).	*
*I'B	*	*I'T	*	*I'A	*
*clefF4	*	*clefC4	*	*clefC3	*
*k[]	*	*k[]	*	*k[]	*
*d:	*	*d:	*	*d:	*
*M3/2	*	*M3/2	*	*M3/2	*
=1-	=1-	=1-	=1-	=1-	=1-
2.D\	Ky-	1A\	Ky-	1f\	Ky-
4E\	.	.	.	.	.
4F\	.	2A/	-ri-	2d\	-ri-
4G\	.	.	.	.	.
=2-	=2-	=2-	=2-	=2-	=2-
1A\	-ri-	2A\	-e	2.c/	-e
.	.	2c\	.	.	.
.	.	.	.	4d\	.
2E\	-e	2A/	e-	2e\	.
=3-	=3-	=3-	=3-	=3-	=3-
2F\	e-	2d\	-ley-	1d\	e-
2G\	-ley-	2.e\	.	.	.
2A\	.	.	.	2c/	-ley-
.	.	4A\	.	.	.
=4-	=4-	=4-	=4-	=4-	=4-
1.D\	-ſon	1.A\	-ſon	1.d\	-ſon
=5-	=5-	=5-	=5-	=5-	=5-
*	*ij	*	*	*	*ij
1D\	Ky-	1d\	Ky-	1f#X\	Ky-
!	!	!	!	!LO:TX:a:t=P:problem=# above	!
2BB/	-ri-	2d\	-ri-	2g#X\	-ri-
!	!	!	!	!LO:LB:g=original	!
=6-	=6-	=6-	=6-	=6-	=6-
4AA/	-e	1e\	-e	1a\	-e
4BB/	.	.	.	.	.
4C/	.	.	.	.	.
4D/	.	.	.	.	.
2E\	e-	2e\	e-	2gny\	e-
=7-	=7-	=7-	=7-	=7-	=7-
2F\	.	2c\	.	1fny\	-ley-
2D\	-ley-	2d\	-ley-	.	.
2E\	.	2B\	.	2e\	.
=8-	=8-	=8-	=8-	=8-	=8-
!	!	!LO:TX:a:t=P:problem=# above	!	!	!
1AA/	-ſon	2c#X\	-ſon	1.e\	-ſon
*	*Xij	*	*	*	*Xij
.	.	2e\	Ky-	.	.
!	!	!LO:TX:a:t=P:problem=# above	!	!	!
2A\	Ky-	2c#X\	-ri-	.	.
=9-	=9-	=9-	=9-	=9-	=9-
2F\	-ri-	1d\	-e	2f\	Ky-
1G\	-e	.	.	2d\	-ri-
.	.	2d\	e-	[2g\	-e
=10-	=10-	=10-	=10-	=10-	=10-
2E\	e-	2e\	-ley-	2g\]	.
1F\	-ley-	1cny\	-ſon	1f\	e-
!LO:LB:g=original	!	!LO:LB:g=original	!	!	!
=11-	=11-	=11-	=11-	=11-	=11-
2C/	-ſon	2c\	e-	2e\	.
1D\	e-	1A\	-ley-	1d\	-ley-
=12-	=12-	=12-	=12-	=12-	=12-
2.AA/	-ley-	1.A\	-ſon	2.c\	-ſon
4BB/	.	.	.	4d\	.
!LO:TX:a:t=P:problem=# above	!	!	!	!	!
2C#X/	-ſon	.	.	2e\	.
=13-	=13-	=13-	=13-	=13-	=13-
*	*	*	*ij	*	*
2.D\	Ky-	1A\	Ky-	1f\	Ky-
4E\	-ri-	.	.	.	.
4F\	.	2A/	-ri-	2d\	-ri-
4G\	.	.	.	.	.
=14-	=14-	=14-	=14-	=14-	=14-
1A\	-e	2A/	-e	2.c/	-e
.	.	2.c\	e-	.	.
.	.	.	.	4d\	.
2E\	e-	.	.	2e\	.
.	.	4A/	-ley-	.	.
=15-	=15-	=15-	=15-	=15-	=15-
2F\	-ley-	2d\	-ſon	1d\	e-
2G\	-ſon	2.e\	Ky-	.	.
!	!	!	!	!LO:TX:b:t=P:problem=# below	!
*	*ij	*	*	*	*
2A\	Ky-	.	.	2c#X/	-ley-
.	.	4A/	-ri-	.	.
=16-	=16-	=16-	=16-	=16-	=16-
1D\	-ri-	1A\	-e	1.d\	-ſon
!LO:TX:t=P:♭above:problem	!	!	!	!	!
2BB-X/	-e	2D/	e-	.	.
=17-	=17-	=17-	=17-	=17-	=17-
1.GG/	e-	2.G/	-ley-	1.g\	e-
.	.	4F/	.	.	.
.	.	2E/	-ſon	.	.
=18-	=18-	=18-	=18-	=18-	=18-
1.AA/	.	2E/	Ky-	2g\	-ley-
.	.	2A/	-ri-	(1f\	.
.	.	2D/	-e	.	.
=19-	=19-	=19-	=19-	=19-	=19-
1.AA/	-ley-	1E/	e-	1.e\);<	.
.	.	2A/	-ley-	.	.
=20-	=20-	=20-	=20-	=20-	=20-
!	!	!	!	!LO:TX:a:t=P:problem=# above	!
1.D\;;	-ſon	1.A\;;	-ſon	1.f#X\;<	-ſon
!	!	!	!	!LO:LB:g=original	!
=21-	=21-	=21-	=21-	=21-	=21-
*M3/1	*Xij	*M3/1	*Xij	*M3/1	*
!LO:TX:a:t=6	!LO:N:vis=00	!	!LO:N:vis=00	!	!
!LO:N:vis=00	!	!	!	!	!
00.r	.	00.r	.	00.r	.
=22-	=22-	=22-	=22-	=22-	=22-
.	.	.	.	.	.
=23-	=23-	=23-	=23-	=23-	=23-
!LO:N:vis=00	!	!LO:N:vis=00	!	!	!
00.r	.	00.r	.	1r	.
.	.	.	.	1r	.
.	.	.	.	1d\	Chryſ-
=24-	=24-	=24-	=24-	=24-	=24-
.	.	.	.	1e\	-te
.	.	.	.	2e\	e-
.	.	.	.	2fny\	.
.	.	.	.	2g\	.
.	.	.	.	2a\	.
=25-	=25-	=25-	=25-	=25-	=25-
!LO:N:vis=00	!	!	!	!	!
00.r	.	1r	.	1f\	-ley-
.	.	1r	.	1d\	.
.	.	1G/	Chri-	1g\	-ſon
!	!	!LO:LB:g=original	!	!	!
=26-	=26-	=26-	=26-	=26-	=26-
.	.	1A\	-ſte	1g\	e-
.	.	2A/	e-	1.g\	-ley-
.	.	2B\	.	.	.
.	.	2c\	.	.	.
.	.	2d\	.	2f\	.
=27-	=27-	=27-	=27-	=27-	=27-
1r	.	1B\	.	1g\	-ſon
1r	.	1G/	-ley-	1d\	X-
*custos:D	*	*	*	*	*
1Cny/	Chri-	1c\	-ſon	1e\	-(t)e
!LO:LB:g=original	!	!	!	!	!
=28-	=28-	=28-	=28-	=28-	=28-
1D\	-ſte	1c\	e-	1d\	e-
2D/	e-	1.c\	-ley-	2d\	-ley-
2E/	.	.	.	2cny/	.
2F\	.	.	.	2d\	.
2G\	.	2B\	.	2e\	.
=29-	=29-	=29-	=29-	=29-	=29-
1E\	-ley-	1c\	-ſon	1c\	.
1C/	-ſon	1G/	chry-	1c\	-ſon
1G\	[Chris-	1B\	.	1r	.
=30-	=30-	=30-	=30-	=30-	=30-
!	!	!	!	!LO:TX:t=P:problem=dużo pionów dysonujących jednak nie znajduję błędu w tranksrypcji	!
!	!	!	!	!LO:N:vis=0	!
1G\	-te]	1A\	-ste	0.r	.
1G\	e-	2A/	e-	.	.
.	.	2G/	.	.	.
1.G\	-ley-	2A/	.	.	.
.	.	2B/	.	.	.
=31-	=31-	=31-	=31-	=31-	=31-
.	.	1G/	-ley-	1r	.
!LO:TX:a:t=P:problem=# above	!	!	!	!	!
2F#X\	.	.	.	.	.
1G\	-ſon	1G/	-ſon	1r	.
*	*ij	*	*	*	*
1D\	Chri-	1r	.	1d\	Chri-
!	!	!	!	!LO:LB:g=original	!
=32-	=32-	=32-	=32-	=32-	=32-
!LO:TX:a:t=P:problem=# above	!	!	!	!	!
1F#X\	.	0.r	.	1e\	-ſte
1A\	.	.	.	2e\	e-
.	.	.	.	2f\	.
2E\	-ſte	.	.	2g\	.
2D/	e-	.	.	2a\	.
=33-	=33-	=33-	=33-	=33-	=33-
2E\	.	1r	.	1f\	-ley-
2Fny\	.	.	.	.	.
1D\	-ley-	1r	.	1d\	-ſon
*	*	*	*	*	*ij
1D\	-ſon	1A\	Chri-	1a\	Chri-
*	*Xij	*	*	*	*
=34-	=34-	=34-	=34-	=34-	=34-
1r	.	1B\	-ſte	1a\	-ſte
0r	.	2B\	e-	1.a\	e-
.	.	2c\	.	.	.
.	.	2d\	.	.	.
!	!	!	!	!LO:TX:a:t=P:problem=# above	!
.	.	2e\	.	2g#X\	.
!	!	!LO:LB:g=original	!	!	!
=35-	=35-	=35-	=35-	=35-	=35-
1r	.	1c\	.	1a\	-ley-
1r	.	1A\	-ley-	1e\	-ſon
1E\	Chri-	1e\	-ſon	1gny\	Chri-
=36-	=36-	=36-	=36-	=36-	=36-
!	!	!	!	!LO:TX:a:t=P:problem=# above	!
*	*	*	*ij	*	*
1F\	-ſte	1e\	Chri-	1f#X\	-ſte
2F\	.	1.e\	-ſte	2f#\	e-
2G\	.	.	.	2e\	.
2A\	.	.	.	2f#\	.
!	!	!LO:TX:a:t=P:problem=# above	!	!	!
2B\	.	2d#X\	e-	2g\	.
!LO:PB:g=original	!	!	!	!	!
=37-	=37-	=37-	=37-	=37-	=37-
1G\	e-	1e\	-ley-	0e\	-ley-
1E\	-ley-	1B\	-ſon	.	.
*	*	*	*Xij	*	*
1A\	-ſon	1c\	e-	1e\	-ſon
*	*	*	*	*	*Xij
=38-	=38-	=38-	=38-	=38-	=38-
!	!	!LO:TX:t=P:problem=kreska pseudotaktowa	!	!	!
1A\	e-	1B\	-ley-	1r	.
1.A\	-ley-	2B\	.	1r	.
.	.	2A/	.	.	.
.	.	2B\	.	1e\	chriſ-
!LO:TX:a:t=P:problem=# above	!	!	!	!	!
2G#X\	-ſon	2c\	.	.	.
=39-	=39-	=39-	=39-	=39-	=39-
*	*ij	*	*	*	*
1A\	e-	0A\	.	1e\	te
1A\	-ley-	.	.	2d\	.
.	.	.	.	2e\	.
1F\	-ſon	1A\	-ſon	1fny\	.
!	!	!	!	!LO:LB:g=original	!
=40-	=40-	=40-	=40-	=40-	=40-
1A\	e-	1r	.	1e\	e-
1.A\	-ley-	1.A\	Chri-	2e\	-ley-
.	.	.	.	2d\	.
.	.	.	.	2e\	.
2AA/	.	2G/	.	2f\	.
=41-	=41-	=41-	=41-	=41-	=41-
0.D\	-ſon	1F#X/	.	0.d\	-ſon
.	.	1F#/	-ſte	.	.
.	.	1G/	e-	.	.
=42-	=42-	=42-	=42-	=42-	=42-
1r	.	0G/	-ley-	1r	.
*	*Xij	*	*	*	*ij
0Gny\	Chri-	.	.	1.g\	chriſ-
.	.	1G/	-ſon	.	.
.	.	.	.	2f\	-te
=43-	=43-	=43-	=43-	=43-	=43-
0.C/	-ſte	1r	.	1e\	e-
*	*	*	*ij	*	*
.	.	1.c\	Chri-	1e\	-ley-
.	.	.	.	1e\	-ſon
.	.	2B\	.	.	.
!	!	!LO:LB:g=original	!	!	!
=44-	=44-	=44-	=44-	=44-	=44-
1r	.	1A\	.	0f\	chriſ-
*	*ij	*	*	*	*
1.F\	Chri-	1A\	-ſte	.	.
.	.	1A\	e-	1f\	-te
2E\	.	.	.	.	.
=45-	=45-	=45-	=45-	=45-	=45-
1D\	.	1A\	-ley-	1f\	e-
1D\	-ſte	1A\	-ſon	2a\	-ley-
.	.	.	.	2g\	.
!	!	!LO:TX:t=P:problem=kreska pseudotaktowa	!	!	!
1D\	Chri-	1r	.	1f\	-ſon
=46-	=46-	=46-	=46-	=46-	=46-
1E\	.	1r	.	0e\	e-
1E\	-ſte	1G/	Chriſ-	.	.
*	*Xij	*	*	*	*
1BBny/	e-	1B\	.	1d\	-ley-
=47-	=47-	=47-	=47-	=47-	=47-
1C/	-ley-	1G/	-te	1e\,<	-ſon
1C/	-ſon	1G/	e-	1f\	chriſ-
1GG/	e-	1B\	-ley-	1g\	-te
*	*	*	*	*	*Xij
!LO:LB:g=original	!	!	!	!	!
=48-	=48-	=48-	=48-	=48-	=48-
1C/	-ley-	1A\	-ſon	0g\	e-
0D\	.	1A\	e-	.	.
.	.	1dny\	-ley-	1f#X\	-ley-
=49-	=49-	=49-	=49-	=49-	=49-
!	!	!LO:TX:t=P:problem=kreska pseudotaktowa	!	!	!
0.GG/;;	-ſon	0.B\;;	-ſon	0.g\;;	-ſon
!	!	!	!	!LO:LB:g=original	!
=50-	=50-	=50-	=50-	=50-	=50-
*M3/2	*	*M3/2	*Xij	*M3/2	*
2.D\	Ky-	2.d\	Ky-	2.fny\	Ky-
4D\	-ri-	4d\	-ri-	4f\	-ri-
2GG/	-e	2d\	-e	2g\	-e
=51-	=51-	=51-	=51-	=51-	=51-
*	*ij	*	*ij	*	*ij
2.D\	Ky-	2.d\	Ky-	2.f#X\	Ky-
4D\	-ri-	4d\	-ri-	4f#\	-ri-
*	*	*custos:B	*	*	*
2AA/	-e	2c\	-e	2e\	-e
*	*Xij	*	*Xij	*	*Xij
!	!	!LO:LB:g=original	!	!	!
=52-	=52-	=52-	=52-	=52-	=52-
2.GG/	e-	2.B\	e-	2g\	e-
.	.	.	.	1g\	-ley-
4AA/	.	4c\	.	.	.
4BB/	.	2d\	.	.	.
4C/	.	.	.	.	.
=53-	=53-	=53-	=53-	=53-	=53-
1D\	-ley-	2d\	-ley-	1fny\	-ſon
.	.	1A\	-ſon	.	.
2D/	-ſon	.	.	2f\	Ky-
=54-	=54-	=54-	=54-	=54-	=54-
*	*	*	*ij	*	*
2.D/	Ky-	1d\	Ky-	1f\	-ri-
4D/	-ri-	.	.	.	.
2AA/	-e	2c\	.	2f\	-e
=55-	=55-	=55-	=55-	=55-	=55-
*	*ij	*	*	*	*
2.C/	e-	1c\	-ri-	1e\	e-
4C/	-ley-	.	.	.	.
4FF/	-ſon	2c\	-e	2f\	.
*	*Xij	*	*	*	*
4FF/	e-	.	.	.	.
=56-	=56-	=56-	=56-	=56-	=56-
2C/	-ley-	2c\	e-	2g\	.
4C/	-ſon	2c\	-ley-	2e\	-ley-
4C/	e-	.	.	.	.
2D/	-ley-	2B\	.	2d\	.
=57-	=57-	=57-	=57-	=57-	=57-
1.D\	-ſon	1.A\	-ſon	1.d\	-ſon
!LO:LB:g=original	!	!	!	!	!
=58-	=58-	=58-	=58-	=58-	=58-
*	*	*	*Xij	*	*ij
2.C/	Ky-	2.c\	Ky-	2.e\	Ky-
4C/	-ri-	4c\	-ri-	4e\	-ri-
2GG/	-e	2B\	-e	2d\	-e
=59-	=59-	=59-	=59-	=59-	=59-
*	*ij	*	*	*	*
2.BB/	Ky-	1B\	e-	1d\	e-
4BB/	-ri-	.	.	.	.
2C/	-e	2G/	.	2e\	-ley-
*	*Xij	*	*	*	*
=60-	=60-	=60-	=60-	=60-	=60-
1D\	e-	2.d\	-ley-	2.f\	-ſon
!	!	!	!	!LO:TX:t=P:problem=połowa taktu niewidoczna - uszkodzony papier	!
.	.	4A\	.	4ryy	.
2C/	-ley-	2c\	.	2ryy	.
!	!	!	!	!LO:LB:g=original	!
=61-	=61-	=61-	=61-	=61-	=61-
1.FF/	-ſon	1.c\	-ſon	1.f\	.
=62-	=62-	=62-	=62-	=62-	=62-
*	*ij	*	*	*	*Xij
2.F\	Ky-	2.c\	Ky-	2.f\	Ky-
4F\	-ri-	4c\	-ri-	4f\	-ri-
2D\	-e	2d\	-e	2f\	-e
=63-	=63-	=63-	=63-	=63-	=63-
*	*	*	*ij	*	*ij
2.C/	e-	2.e\	Ky-	2.e\	Ky-
4C/	-ley-	4e\	-ri-	4e\	-ri-
2D/	-ſon	2A/	-e	2d\	-e
*	*	*	*Xij	*	*Xij
!	!	!LO:LB:g=original	!	!	!
=64-	=64-	=64-	=64-	=64-	=64-
2GG/	Ky-	2B\	e-	2d\	e-
2.AA/	.	2.A/	-ley-	2d\	-ley-
!	!	!	!	!LO:TX:a:t=P:problem=# above	!
.	.	.	.	2c#X/	.
4AA/	-ri-	4A/	-ſon	.	.
=65-	=65-	=65-	=65-	=65-	=65-
*	*	*	*ij	*	*
1D\	-e	1B\	Ky-	1d\	-ſon
*	*	*	*	*	*ij
2D/	e-	2A/	-ri-	2d\	e-
=66-	=66-	=66-	=66-	=66-	=66-
1AA/	-ley-	1A\	-e	1d\	-ley-
2AA/	.	2A/	-ley-	2c#X/	.
=67-	=67-	=67-	=67-	=67-	=67-
1D\	-ſon	1A\	-ſon	1d\	-ſon
*	*Xij	*	*	*	*Xij
2AA/	e-	2d\	e-	2f\	e-
=68-	=68-	=68-	=68-	=68-	=68-
1.AA/	-[[ley]]-	1d\	-ley-	1.e\	-ley-
.	.	2c#X\	.	.	.
=69-	=69-	=69-	=69-	=69-	=69-
1.D\;;	-ſon	1.d\;	-ſon	1.f#X\;;	-ſon
==	==	==	==	==	==
*-	*-	*-	*-	*-	*-
!!!system-decoration: [(s1,s2,s3)]
!!!RDF**kern: > = above
!!!RDF**kern: < = below
!!!EED: Andrzej Borzym
!!!EEV: 2021-07-08
!!!ENC: Tomasz Grochalski
!!!END: 2021-06-30
